usr/share/icons/biglinux-icons-material-dark/symbolic/status/fcitx-sunpinyin-symbolic.svg

<svg xmlns="http://www.w3.org/2000/svg" viewBox="0 0 22 22">
  <defs id="defs3051">
    <style type="text/css" id="current-color-scheme">
      .ColorScheme-Text {
        color:#232629;
      }
      </style>
  </defs>
    <path
       style="fill:currentColor;fill-opacity:1;stroke:none" 
       d="M 11 1.5136719 C 10.744381 1.5136719 10.488837 1.612725 10.292969 1.8085938 L 8.1015625 4 L 5 4 C 4.4459998 4 4 4.4459998 4 5 L 4 8.0996094 L 1.8066406 10.292969 C 1.4149034 10.684706 1.4149034 11.315294 1.8066406 11.707031 L 4 13.900391 L 4 17 C 4 17.554 4.4459998 18 5 18 L 8.0996094 18 L 10.292969 20.193359 C 10.684706 20.585097 11.315294 20.585097 11.707031 20.193359 L 13.900391 18 L 17 18 C 17.554 18 18 17.554 18 17 L 18 13.898438 L 20.191406 11.707031 C 20.583143 11.315294 20.583143 10.684706 20.191406 10.292969 L 18 8.1015625 L 18 5 C 18 4.4459998 17.554 4 17 4 L 13.898438 4 L 11.707031 1.8085938 C 11.511163 1.612725 11.255619 1.5136719 11 1.5136719 z M 10.900391 4.7011719 L 12.400391 6.7011719 L 12.001953 7 L 13.998047 7 L 13.599609 6.7011719 L 15.099609 4.7011719 L 15.900391 5.3007812 L 14.625 7 L 17 7 L 17 8 L 15 8 L 15 11 L 17 11 L 17 12 L 15 12 L 15 17 L 14 17 L 14 12 L 11.958984 12 C 11.862844 13.118701 11.481893 14.02943 11.033203 14.806641 C 10.412486 15.881641 9.3417969 16.865234 9.3417969 16.865234 L 8.6582031 16.136719 C 8.6582031 16.136719 9.6706537 15.167941 10.167969 14.306641 C 10.569285 13.61152 10.872261 12.895032 10.960938 12 L 9 12 L 9 11.058594 L 8 11.558594 L 8 17 L 5 17 L 5 16 L 7 16 L 7 12.058594 L 5.2226562 12.947266 L 4.7773438 12.052734 L 7 10.941406 L 7 8 L 5 8 L 5 7 L 7 7 L 7 5 L 8 5 L 8 7 L 9 7 L 9 8 L 8 8 L 8 10.441406 L 8.7773438 10.052734 L 9.2226562 10.947266 L 9.1171875 11 L 11 11 L 11 8 L 10 8 L 10 7 L 11.375 7 L 10.099609 5.3007812 L 10.900391 4.7011719 z M 12 8 L 12 11 L 14 11 L 14 8 L 12 8 z "
     class="ColorScheme-Text"
        />
</svg>

<svg xmlns="http://www.w3.org/2000/svg" viewBox="0 0 22 22">
<defs id="defs3051">
<style id="current-color-scheme" type="text/css">
.ColorScheme-Contrast{color:#232629}
</style>
</defs>
<path d="M11 1.514a1 1 0 0 0-.707.295L8.102 4H5c-.554 0-1 .446-1 1v3.1l-2.193 2.193a1 1 0 0 0 0 1.414L4 13.9V17c0 .554.446 1 1 1h3.1l2.193 2.193a1 1 0 0 0 1.414 0L13.9 18H17c.554 0 1-.446 1-1v-3.102l2.191-2.191a1 1 0 0 0 0-1.414L18 8.102V5c0-.554-.446-1-1-1h-3.102l-2.191-2.191A1 1 0 0 0 11 1.514M10.9 4.7l1.5 2-.398.299h1.996L13.6 6.7l1.5-2 .8.6L14.625 7H17v1h-2v3h2v1h-2v5h-1v-5h-2.041c-.096 1.119-.477 2.03-.926 2.807-.62 1.075-1.691 2.058-1.691 2.058l-.684-.728s1.013-.97 1.51-1.83c.401-.695.704-1.412.793-2.307H9v-.941l-1 .5V17H5v-1h2v-3.941l-1.777.888-.446-.894L7 10.94V8H5V7h2V5h1v2h1v1H8v2.441l.777-.388.446.894-.106.053H11V8h-1V7h1.375L10.1 5.3zM12 8v3h2V8z" class="ColorScheme-Contrast" style="fill:currentColor;fill-opacity:1;stroke:none"/>
</svg>
